!!!COM: Bach, Johann Sebastian
!!!CDT: 1685/3//-1750/7/28/
!!!OTL@@DE: Ich dank' dir, lieber Herre
!!!OTL@EN:  I thank Thee, dear Lord
!!!AGN: 4-Part Chorale
!!!SCT: BH 002
!!!SCT: BWV 347
**harm	**root	**kern	**kern	**kern	**kern
*	*Iorgan	*Iorgan	*Iorgan	*Iorgan	*Iorgan
!	!	!bass	!tenor	!alto	!sprno
*	*	*clefF4	*clefF4	*clefG2	*clefG2
*k[b-e-]	*k[b-e-]	*k[b-e-]	*k[b-e-]	*k[b-e-]	*k[b-e-]
*B-:	*B-:	*B-:	*B-:	*B-:	*B-:
*met(c)	*met(c)	*met(c)	*met(c)	*met(c)	*met(c)
*M4/4	*M4/4	*M4/4	*M4/4	*M4/4	*M4/4
*MM60	*MM60	*MM60	*MM60	*MM60	*MM60
*>[A,A,B]	*>[A,A,B]	*>[A,A,B]	*>[A,A,B]	*>[A,A,B]	*>[A,A,B]
*>A	*>A	*>A	*>A	*>A	*>A
I	4AA	8B-	4d	4f	4b-
.	.	8A	.	.	.
=1	=1	=1	=1	=1	=1
vi	4FF#	4G	4d	4g	4b-
Ib	4AA	4D	8d	4f	4b-
.	.	.	8c	.	.
IV	4DD	4E-	8B-	4g	4b-
.	.	.	8A	.	.
Vb/V	4BB	4E	4G	4g	4cc
=2	=2	=2	=2	=2	=2
v	4EE	4F	4.c	4f	4a-
V7/V	4BB	4C	.	4e	4g
.	.	.	8B-	.	.
V;	4EE;	4FF;	4Ay;	4c;	4f;
V	4EE	4F	4f	4ay	4cc
=3	=3	=3	=3	=3	=3
I	4AA	4B-	4f	4b-	4dd
V/V	4BB	4c	4e	8a	4cc
.	.	.	.	8g	.
Ib	4AA	4d	2d	[2f	4b-
V7c/VI	8CC#	8c	.	.	8a
vi7b	8FF#	8B-	.	.	8g
=4	=4	=4	=4	=4	=4
V	4EE	4c	4.c	4f]	4a
V7/V	4BB	4C	.	4e	4g
.	.	.	8B-	.	.
V;	4EE;	4F;	4A;	4c;	4f;
=:|!	=:|!	=:|!	=:|!	=:|!	=:|!
*>B	*>B	*>B	*>B	*>B	*>B
iii	4CC#	4D	4A	8dd	4ff
.	.	.	.	8cc	.
=5	=5	=5	=5	=5	=5
IVb	4DD	8G	8B-	4b-	4ee-
.	.	8A	8c	.	.
I	4AA	4B-	8d	4b-	4dd
.	.	.	8e-	.	.
V	4EE	4F	4f	4a	4cc
Ib	8AA	8D	4f	8b-	4b-
V7/IV	8AA	8BB-	.	8a-	.
=6	=6	=6	=6	=6	=6
IV	4DD	4E-	4e-	8g	8b-
.	.	.	.	8ay	8cc
Ib	4AA	8D	4f	4b-	4dd
.	.	8E-	.	.	.
V;	4EE;	4F;	4f;	4a;	4cc;
viio/II	4AA#	4D	4f	4b	4dd
!!linebreak: 2
=7	=7	=7	=7	=7	=7
ii	8BB	4C	8g	8cc	4ee-
ii7	8BB	.	4c	8b-	.
viiD7b/II	4AA#	4D	.	4a-	4dd
.	.	.	8B	.	.
iib	8BB	8E-	4c	8g	4cc
v	8EE	8A-	.	8f	.
V/II	4FF#	4G	4d	4g	4b
=8	=8	=8	=8	=8	=8
ii;	2.BB;	2.C;	2.e-;	2.g;	2.cc;
iii	4CC#	4D	4A	8f	4f
.	.	.	.	8e-	.
=9	=9	=9	=9	=9	=9
vi	4FF#	4G	4B-	4d	4b-
V7	8EE	8F	8A	4e-	4cc
iib	8BB	8E-	8G	.	.
iii	4CC#	4D	8F	4f	4dd
.	.	.	8f	.	.
ii	8BB	4C	4e-	8g	4ee-
viiob	8GG#	.	.	8a	.
=10	=10	=10	=10	=10	=10
I	4AA	8BB-	8d	2b-	4ff
.	.	8C	8e-	.	.
I9b	8AA	8D	8f	.	8ee-
IV7	8DD	8E-	8g	.	8dd
V;	4EE;	4F;	4a;	4f;	4cc;
ii	4BB	4C	4g	4cc	4ee-
=11	=11	=11	=11	=11	=11
vi	8FF#	8G	8g	8b-	4dd
iiic	8CC#	8A	8f	8a	.
ii7d	4BB	4B-	8e-	4g	4cc
.	.	.	8d	.	.
Vb	4EE	8A	4c	4f	4.ff
.	.	8F	.	.	.
vi7b	8FF#	[4B-	8d	8g	.
viioc	8GG#	.	8e-	8a	8ee-
=12	=12	=12	=12	=12	=12
I	4AA	8B-]	4.f	2b-	8dd
.	.	8A	.	.	8cc
ii7c	4BB	4G	.	.	8b-
.	.	.	8e-	.	8cc
Ic	8AA	8F	8d	4b-	4dd
IV7	8DD	8E-	8g	.	.
V	4EE	4F	8c	4a	4cc
.	.	.	16f	.	.
.	.	.	16e-	.	.
=13	=13	=13	=13	=13	=13
I;	2.AA;	2.BB-;	2.d;	2.f;	2.b-;
==	==	==	==	==	==
*-	*-	*-	*-	*-	*-
!!chor2scor: -l 2 -s 0.6 -o %b.pmx
!!!YEC: Copyright 2001 by Craig Stuart Sapp
!!!license: GNU General Public License (http://www.gnu.org/copyleft/gpl.html)
!!!SMA: 371 Bach Chorales, edited by Ludwig Erk, C.F. Peters
!!!PDT: 1850, 1865
!!!ONB: Harmony and Root analysis done manually by Craig Sapp (not proofed yet)
